source/assets/images/icons/linkedin-icon.svg

<?xml version="1.0" ?><!DOCTYPE svg  PUBLIC '-//W3C//DTD SVG 1.1//EN'  'http://www.w3.org/Graphics/SVG/1.1/DTD/svg11.dtd'><svg height="100%" style="fill-rule:evenodd;clip-rule:evenodd;stroke-linejoin:round;stroke-miterlimit:2;" version="1.1" viewBox="0 0 512 512" width="100%" xml:space="preserve" xmlns="http://www.w3.org/2000/svg" xmlns:serif="http://www.serif.com/" xmlns:xlink="http://www.w3.org/1999/xlink"><g id="g5891"><path d="M512,64c0,-35.323 -28.677,-64 -64,-64l-384,0c-35.323,0 -64,28.677 -64,64l0,384c0,35.323 28.677,64 64,64l384,0c35.323,0 64,-28.677 64,-64l0,-384Z" id="background" style="fill:#2867b2;"/><g id="shapes"><rect height="257.962" id="rect11" style="fill:#fff;" width="85.76" x="61.053" y="178.667"/><path d="M104.512,54.28c-29.341,0 -48.512,19.29 -48.512,44.573c0,24.752 18.588,44.574 47.377,44.574l0.554,0c29.903,0 48.516,-19.822 48.516,-44.574c-0.555,-25.283 -18.611,-44.573 -47.935,-44.573Z" id="path13-0" style="fill:#fff;fill-rule:nonzero;"/><path d="M357.278,172.601c-45.49,0 -65.866,25.017 -77.276,42.589l0,-36.523l-85.738,0c1.137,24.197 0,257.961 0,257.961l85.737,0l0,-144.064c0,-7.711 0.554,-15.42 2.827,-20.931c6.188,-15.4 20.305,-31.352 43.993,-31.352c31.012,0 43.436,23.664 43.436,58.327l0,138.02l85.741,0l0,-147.93c0,-79.237 -42.305,-116.097 -98.72,-116.097Z" id="path15" style="fill:#fff;fill-rule:nonzero;"/></g></g></svg>

<?xml version="1.0" encoding="UTF-8" standalone="no"?>
<!DOCTYPE svg PUBLIC "-//W3C//DTD SVG 1.1//EN" "http://www.w3.org/Graphics/SVG/1.1/DTD/svg11.dtd">
<svg width="100%" height="100%" viewBox="0 0 512 512" version="1.1" xmlns="http://www.w3.org/2000/svg" xmlns:xlink="http://www.w3.org/1999/xlink" xml:space="preserve" xmlns:serif="http://www.serif.com/" style="fill-rule:evenodd;clip-rule:evenodd;stroke-linejoin:round;stroke-miterlimit:2;">
    <g id="g5891">
        <path id="background" d="M512,64C512,28.677 483.323,0 448,0L64,0C28.677,0 0,28.677 0,64L0,448C0,483.323 28.677,512 64,512L448,512C483.323,512 512,483.323 512,448L512,64Z" style="fill:rgb(40,103,178);"/>
        <g id="shapes">
            <rect id="rect11" x="61.053" y="178.667" width="85.76" height="257.962" style="fill:white;"/>
            <path id="path13-0" d="M104.512,54.28C75.171,54.28 56,73.57 56,98.853C56,123.605 74.588,143.427 103.377,143.427L103.931,143.427C133.834,143.427 152.447,123.605 152.447,98.853C151.892,73.57 133.836,54.28 104.512,54.28Z" style="fill:white;fill-rule:nonzero;"/>
            <path id="path15" d="M357.278,172.601C311.788,172.601 291.412,197.618 280.002,215.19L280.002,178.667L194.264,178.667C195.401,202.864 194.264,436.628 194.264,436.628L280.001,436.628L280.001,292.564C280.001,284.853 280.555,277.144 282.828,271.633C289.016,256.233 303.133,240.281 326.821,240.281C357.833,240.281 370.257,263.945 370.257,298.608L370.257,436.628L455.998,436.628L455.998,288.698C455.998,209.461 413.693,172.601 357.278,172.601Z" style="fill:white;fill-rule:nonzero;"/>
        </g>
    </g>
</svg>
